profile/logo/discord.svg

<svg xmlns="http://www.w3.org/2000/svg" xmlns:xlink="http://www.w3.org/1999/xlink" version="1.1" width="256" height="256" viewBox="0 0 256 256" xml:space="preserve">

<defs>
</defs>
<g style="stroke: none; stroke-width: 0; stroke-dasharray: none; stroke-linecap: butt; stroke-linejoin: miter; stroke-miterlimit: 10; fill: none; fill-rule: nonzero; opacity: 1;" transform="translate(1.4065934065934016 1.4065934065934016) scale(2.81 2.81)" >
	<path d="M 66.183 77.004 c 0 0 -2.743 -3.277 -5.029 -6.172 c 9.982 -2.819 13.792 -9.068 13.792 -9.068 c -3.124 2.057 -6.096 3.505 -8.763 4.496 c -3.81 1.6 -7.467 2.667 -11.049 3.277 c -7.315 1.372 -14.021 0.991 -19.735 -0.076 c -4.343 -0.838 -8.077 -2.057 -11.201 -3.277 c -1.753 -0.686 -3.658 -1.524 -5.563 -2.591 c -0.229 -0.152 -0.457 -0.229 -0.686 -0.381 c -0.152 -0.076 -0.229 -0.152 -0.305 -0.229 c -1.372 -0.762 -2.134 -1.295 -2.134 -1.295 s 3.658 6.096 13.335 8.991 c -2.286 2.896 -5.105 6.324 -5.105 6.324 C 6.901 76.47 0.5 65.422 0.5 65.422 c 0 -24.536 10.973 -44.424 10.973 -44.424 c 10.973 -8.229 21.412 -8.001 21.412 -8.001 l 0.762 0.914 c -13.716 3.962 -20.04 9.982 -20.04 9.982 s 1.676 -0.914 4.496 -2.21 c 8.153 -3.581 14.63 -4.572 17.297 -4.801 c 0.457 -0.076 0.838 -0.152 1.295 -0.152 c 4.648 -0.61 9.906 -0.762 15.392 -0.152 c 7.239 0.838 15.011 2.972 22.936 7.315 c 0 0 -6.02 -5.715 -18.973 -9.677 l 1.067 -1.219 c 0 0 10.439 -0.229 21.412 8.001 c 0 0 10.973 19.888 10.973 44.424 C 89.5 65.422 83.023 76.47 66.183 77.004 z" style="stroke: none; stroke-width: 1; stroke-dasharray: none; stroke-linecap: butt; stroke-linejoin: miter; stroke-miterlimit: 10; fill: rgb(114,137,218); fill-rule: nonzero; opacity: 1;" transform=" matrix(1 0 0 1 0 0) " stroke-linecap="round" />
	<path d="M 30.751 41.419 c -4.343 0 -7.772 3.81 -7.772 8.458 s 3.505 8.458 7.772 8.458 c 4.343 0 7.772 -3.81 7.772 -8.458 C 38.599 45.229 35.094 41.419 30.751 41.419 z M 58.563 41.419 c -4.343 0 -7.772 3.81 -7.772 8.458 s 3.505 8.458 7.772 8.458 c 4.343 0 7.772 -3.81 7.772 -8.458 S 62.907 41.419 58.563 41.419 z" style="stroke: none; stroke-width: 1; stroke-dasharray: none; stroke-linecap: butt; stroke-linejoin: miter; stroke-miterlimit: 10; fill: rgb(255,255,255); fill-rule: nonzero; opacity: 1;" transform=" matrix(1 0 0 1 0 0) " stroke-linecap="round" />
</g>
</svg>

<?xml version="1.0" encoding="UTF-8" standalone="no"?>
<svg
		version="1.1"
		width="250.09563"
		height="179.86147"
		viewBox="0 0 250.09563 179.86147"
		xml:space="preserve"
		id="svg1012"
		xmlns="http://www.w3.org/2000/svg"
		xmlns:svg="http://www.w3.org/2000/svg">
	<g
			style="opacity:1;fill:none;fill-rule:nonzero;stroke:none;stroke-width:0;stroke-linecap:butt;stroke-linejoin:miter;stroke-miterlimit:10;stroke-dasharray:none"
			transform="matrix(2.81,0,0,2.81,-1.405,-36.519782)"
			id="g1010">
	<path
			d="m 66.183,77.004 c 0,0 -2.743,-3.277 -5.029,-6.172 9.982,-2.819 13.792,-9.068 13.792,-9.068 -3.124,2.057 -6.096,3.505 -8.763,4.496 -3.81,1.6 -7.467,2.667 -11.049,3.277 C 47.819,70.909 41.113,70.528 35.399,69.461 31.056,68.623 27.322,67.404 24.198,66.184 22.445,65.498 20.54,64.66 18.635,63.593 18.406,63.441 18.178,63.364 17.949,63.212 17.797,63.136 17.72,63.06 17.644,62.983 16.272,62.221 15.51,61.688 15.51,61.688 c 0,0 3.658,6.096 13.335,8.991 -2.286,2.896 -5.105,6.324 -5.105,6.324 C 6.901,76.47 0.5,65.422 0.5,65.422 0.5,40.886 11.473,20.998 11.473,20.998 22.446,12.769 32.885,12.997 32.885,12.997 l 0.762,0.914 c -13.716,3.962 -20.04,9.982 -20.04,9.982 0,0 1.676,-0.914 4.496,-2.21 8.153,-3.581 14.63,-4.572 17.297,-4.801 0.457,-0.076 0.838,-0.152 1.295,-0.152 4.648,-0.61 9.906,-0.762 15.392,-0.152 7.239,0.838 15.011,2.972 22.936,7.315 0,0 -6.02,-5.715 -18.973,-9.677 l 1.067,-1.219 c 0,0 10.439,-0.229 21.412,8.001 0,0 10.973,19.888 10.973,44.424 -0.002,0 -6.479,11.048 -23.319,11.582 z"
			style="opacity:1;fill:#7289da;fill-rule:nonzero;stroke:none;stroke-width:1;stroke-linecap:butt;stroke-linejoin:miter;stroke-miterlimit:10;stroke-dasharray:none"
			stroke-linecap="round"
			id="path1006" />
		<path
				d="m 30.751,41.419 c -4.343,0 -7.772,3.81 -7.772,8.458 0,4.648 3.505,8.458 7.772,8.458 4.343,0 7.772,-3.81 7.772,-8.458 0.076,-4.648 -3.429,-8.458 -7.772,-8.458 z m 27.812,0 c -4.343,0 -7.772,3.81 -7.772,8.458 0,4.648 3.505,8.458 7.772,8.458 4.343,0 7.772,-3.81 7.772,-8.458 0,-4.648 -3.428,-8.458 -7.772,-8.458 z"
				style="opacity:1;fill:#ffffff;fill-rule:nonzero;stroke:none;stroke-width:1;stroke-linecap:butt;stroke-linejoin:miter;stroke-miterlimit:10;stroke-dasharray:none"
				stroke-linecap="round"
				id="path1008" />
</g>
</svg>
